flaticon/stationery/sharpener.svg

<svg xmlns="http://www.w3.org/2000/svg" width="32" height="32" viewBox="0 0 24 24">
    <path d="M 3.054688 7.171875 C 3.054688 7.171875 5.714844 8.695312 5.714844 12 C 5.714844 15.175781 3.054688 16.828125 3.054688 16.828125 L 3.054688 24 L 20.945312 24 L 20.945312 16.828125 C 20.945312 16.828125 18.285156 15.265625 18.285156 12 C 18.285156 8.75 20.945312 7.171875 20.945312 7.171875 L 20.945312 0 L 3.054688 0 Z M 13.976562 22.980469 L 10.023438 22.980469 L 10.023438 8.683594 C 10.023438 7.589844 10.910156 6.703125 12 6.703125 C 13.089844 6.703125 13.976562 7.589844 13.976562 8.683594 Z M 4.078125 1.019531 L 19.921875 1.019531 L 19.921875 6.644531 C 18.253906 7.917969 17.265625 9.898438 17.265625 12 C 17.265625 14.101562 18.253906 16.082031 19.921875 17.355469 L 19.921875 22.980469 L 15 22.980469 L 15 8.683594 C 15 7.027344 13.652344 5.683594 12 5.683594 C 10.347656 5.683594 9 7.027344 9 8.683594 L 9 22.980469 L 4.078125 22.980469 L 4.078125 17.355469 C 5.746094 16.082031 6.734375 14.101562 6.734375 12 C 6.734375 9.898438 5.746094 7.917969 4.078125 6.648438 Z M 4.078125 1.019531"/>
    <path d="M 11.488281 14.332031 L 12.511719 14.332031 L 12.511719 15.351562 L 11.488281 15.351562 Z M 11.488281 14.332031"/>
</svg>

<svg xmlns="http://www.w3.org/2000/svg" width="32" height="32" viewBox="0 0 24 24">
    <path d="M3.055 7.172S5.715 8.695 5.715 12c0 3.176-2.66 4.828-2.66 4.828V24h17.89v-7.172s-2.66-1.562-2.66-4.828c0-3.25 2.66-4.828 2.66-4.828V0H3.055zM13.977 22.98h-3.954V8.684A1.98 1.98 0 0 1 12 6.704a1.98 1.98 0 0 1 1.977 1.98zM4.078 1.02h15.844v5.625A6.746 6.746 0 0 0 17.266 12c0 2.102.988 4.082 2.656 5.355v5.625H15V8.684c0-1.657-1.348-3-3-3s-3 1.343-3 3V22.98H4.078v-5.625A6.746 6.746 0 0 0 6.734 12a6.733 6.733 0 0 0-2.656-5.352zm0 0"/>
    <path d="M11.488 14.332h1.024v1.02h-1.024zm0 0"/>
</svg>
